storage/app/icons/phosphoricons/duotone/newspaper-duotone.svg

<svg xmlns="http://www.w3.org/2000/svg" fill="currentColor" viewBox="0 0 256 256"><path d="M224 64v120a16 16 0 0 1-16 16H32a16 16 0 0 0 16-16V64a8 8 0 0 1 8-8h160a8 8 0 0 1 8 8" opacity=".2"/><path d="M88 112a8 8 0 0 1 8-8h80a8 8 0 0 1 0 16H96a8 8 0 0 1-8-8m8 40h80a8 8 0 0 0 0-16H96a8 8 0 0 0 0 16m136-88v120a24 24 0 0 1-24 24H32a24 24 0 0 1-24-23.89V88a8 8 0 0 1 16 0v96a8 8 0 0 0 16 0V64a16 16 0 0 1 16-16h160a16 16 0 0 1 16 16m-16 0H56v120a23.8 23.8 0 0 1-1.37 8H208a8 8 0 0 0 8-8Z"/></svg>

<svg xmlns="http://www.w3.org/2000/svg" viewBox="0 0 256 256" fill="currentColor"><path d="M224,64V184a16,16,0,0,1-16,16H32a16,16,0,0,0,16-16V64a8,8,0,0,1,8-8H216A8,8,0,0,1,224,64Z" opacity="0.2"/><path d="M88,112a8,8,0,0,1,8-8h80a8,8,0,0,1,0,16H96A8,8,0,0,1,88,112Zm8,40h80a8,8,0,0,0,0-16H96a8,8,0,0,0,0,16ZM232,64V184a24,24,0,0,1-24,24H32A24,24,0,0,1,8,184.11V88a8,8,0,0,1,16,0v96a8,8,0,0,0,16,0V64A16,16,0,0,1,56,48H216A16,16,0,0,1,232,64Zm-16,0H56V184a23.84,23.84,0,0,1-1.37,8H208a8,8,0,0,0,8-8Z"/></svg>
